!!!OTL: ES HUETT SICH EIN MAEDEL DIE LAEMMELEIN
!!!ARE: Europa, Mitteleuropa, Deutschland, Schlesien
!!!SCT: E0126A
!!!YEM: Copyright 1995, estate of Helmut Schaffrath.
**kern
*ICvox
*Ivox
*M6/8
*k[b-]
*F:
{8c
=1
8f
8f
8f
8a
8f
8a
=2
4cc
8cc
4a
8cc
=3
4b-
8g
4a}
{8c
=4
8f
8f
8f
8a
8f
8a
=5
4cc
8cc
4a
8cc
=6
4b-
8g
4a}
{8a
=7
8b-
8b-
8b-
8g
8g
8g
=8
4cc
8cc
4a}
{8a
=9
8b-
8b-
8b-
8g
8g
8g
=10
4cc
8cc
4a}
{8cc
=11
8.ff
16cc
8cc
8a
8f
8cc
=12
4b-
8g
4a}
==
!!!AGN: erzaehlendes Volks - Lied, Schalk -, Schelmen - Lied, betrogene Liebe, Ballade ?
!!!ONB: ESAC (Essen Associative Code) Database: ERK1
!!!AMT: compound duple
!!!AIN: vox
!!!EED: Helmut Schaffrath
!!!EEV: 1.0
*-
